lib/assets/icons/svg/outlined-action-upload.svg

<svg xmlns="http://www.w3.org/2000/svg" viewBox="0 0 24 24"><path d="M7.438 17.25c-3.472-.01-5.631-3.774-3.887-6.776A4.517 4.517 0 0 1 4.788 9.1a3.562 3.562 0 0 1 .82-2.16 3.51 3.51 0 0 1 4.54-.71A4.55 4.55 0 0 1 14.038 4a4.47 4.47 0 0 1 3.18 1.32 4.42 4.42 0 0 1 1.31 3.18v.12c3.118 1.51 3.432 5.829.565 7.774a4.501 4.501 0 0 1-2.515.776.5.5 0 0 1 0-1c2.686.024 4.391-2.87 3.069-5.208a3.494 3.494 0 0 0-1.819-1.552.51.51 0 0 1-.32-.5v-.44a3.512 3.512 0 0 0-.97-2.47 3.441 3.441 0 0 0-2.5-1 3.529 3.529 0 0 0-3.27 2.24.51.51 0 0 1-.8.19l-.11-.1a2.5 2.5 0 0 0-3.51.31 2.497 2.497 0 0 0-.56 1.56v.11a.49.49 0 0 1-.23.47c-2.279 1.452-2.131 4.826.266 6.074a3.516 3.516 0 0 0 1.614.396.5.5 0 0 1 0 1zm7.6-3.25a.54.54 0 0 1-.35-.14l-2.15-2.166V19.5a.5.5 0 0 1-1 0v-7.812l-2.16 2.152a.502.502 0 0 1-.71-.71l3-3a.5.5 0 0 1 .71 0l3 3a.51.51 0 0 1 0 .71.543.543 0 0 1-.34.16z"/></svg>

<svg viewBox="0 0 24 24" xmlns="http://www.w3.org/2000/svg">
  <path  d="M 7.438 17.25 C 3.966 17.24 1.807 13.476 3.551 10.474 C 3.864 9.936 4.285 9.468 4.788 9.1 C 4.814 8.309 5.102 7.549 5.608 6.94 C 6.735 5.608 8.669 5.306 10.148 6.23 C 10.963 4.855 12.44 4.008 14.038 4 C 15.232 3.998 16.377 4.473 17.218 5.32 C 18.066 6.16 18.539 7.307 18.528 8.5 L 18.528 8.62 C 21.646 10.13 21.96 14.449 19.093 16.394 C 18.351 16.897 17.475 17.168 16.578 17.17 C 16.302 17.17 16.078 16.946 16.078 16.67 C 16.078 16.394 16.302 16.17 16.578 16.17 C 19.264 16.194 20.969 13.3 19.647 10.962 C 19.242 10.247 18.598 9.697 17.828 9.41 C 17.625 9.329 17.497 9.128 17.508 8.91 L 17.508 8.47 C 17.52 7.551 17.172 6.665 16.538 6 C 15.875 5.341 14.973 4.98 14.038 5 C 12.592 5.006 11.296 5.894 10.768 7.24 C 10.634 7.557 10.23 7.653 9.968 7.43 L 9.858 7.33 C 8.802 6.451 7.234 6.59 6.348 7.64 C 5.989 8.081 5.792 8.631 5.788 9.2 L 5.788 9.31 C 5.808 9.498 5.719 9.681 5.558 9.78 C 3.279 11.232 3.427 14.606 5.824 15.854 C 6.323 16.113 6.876 16.249 7.438 16.25 C 7.714 16.25 7.938 16.474 7.938 16.75 C 7.938 17.026 7.714 17.25 7.438 17.25 Z M 15.038 14 C 14.908 13.997 14.784 13.947 14.688 13.86 L 12.538 11.694 L 12.538 19.5 C 12.538 19.776 12.314 20 12.038 20 C 11.762 20 11.538 19.776 11.538 19.5 L 11.538 11.688 L 9.378 13.84 C 9.105 14.113 8.638 13.988 8.538 13.615 C 8.492 13.442 8.541 13.257 8.668 13.13 L 11.668 10.13 C 11.864 9.933 12.182 9.933 12.378 10.13 L 15.378 13.13 C 15.57 13.328 15.57 13.642 15.378 13.84 C 15.287 13.932 15.167 13.989 15.038 14 Z"/>
</svg>
